X: 29340
T: Newfoundland Spring
R: jig
M: 6/8
K: Edorian
BEB BEB|ABc d2B|AFD DED|AFD DFA|
BEB BEB|ABc d2B|AFD DED|FEE E3:|
B2e efe|ABc d2B|AFD DED|AFD DFA|
B2e efe|ABc d2B|AFD DED|FEE E3:|

